X: 11931
T: Empty Lighter, The
R: reel
M: 4/4
K: Gminor
|:D|G^FGB AFDB|AGG^F GBd^f|gdBe dBA^F|DAAG G^FFE|
DG^FB AFDB|AGG^F GBd^f|gdBe dBA^F|1 DGG^F G3:|2 DBBA G3||
|:G|FAce dB ~B2|AFAc e2 dc|dg ~g2 bagb|agfd g3 a|
bd'd'b ac'a^f|db a/b/c' bgdB|ABce dBA^F|1 DGG^F G3:|2 DBBA G3||

